X: 30979
T: Ozark Rag
R: reel
M: 4/4
K: Fmajor
"F"fef(d cA)dc|A(FG)E FGA=B|"C"[cE][cE]([cD][cD])[cD][c_E]|c4z2(c2=E4z2(D_E|
[P:A]|:"C"c)cc2c2c2=E)ED2E2D2|ccc(cc2)(A2EED(EE2)(E2|"F"A2)AAA2F2)G^GAF(G^G)|[AA][AF][A=G][A^G][AA](dA|
"G"=Bd)BAG2(dA)|=BdA(^FG2)(AB|1 "C"c)dcA G(cAG)|(EG)EDC2([AD]:|2
"C"c)Adc A(FGE)|"F"F2F2E2_E2|:[P:B]"D"(D_EE)F ^F((d3|d)A)cA =BGA"<("">)"D|"G"(G,_A,)=A,_B, =B,G2(D|
F2)(D(E E))(GD)_B,|"C"CCD_Ec2A|(cA)(dc A)(FDE)|"F"F2(d(c c)A)GE|1 F2F2E2_E2:|2
F6(DE||[P:C]"D"^FD)EF (DE)(FD|E^F)DEF2(G,A,|"G"B,G,)AB, (G,A,)(B,G,|A,B,)(G,A,B,2)G,2|
"C"CCD_E=E2(c2A)|(cA)(dc) AF(GD)|"F"F2(d(c c)A)GD|F2F2E2_E2|"D"(DE^F)D EFDE|
FDE(F F)ED=B,|"G"(G,A,)=B,G, A,B,G,A,|=B,G,A,((B,A,)G,2)|"C"CCD_E =E(c2A)|(cA)(dc A)(FGE)|
"F"F2(d(c c)A)GD|F6[cD]||[P:D]"F"F2(C(D "C"D))(CD2)|"F"[AF]z4||

